flaticon/files-and-folders/clipboard-25.svg

<svg xmlns="http://www.w3.org/2000/svg" width="32" height="32" viewBox="0 0 24 24">
    <path d="M 18.398438 2.800781 L 16.398438 2.800781 L 16.398438 2.398438 C 16.398438 1.960938 16.039062 1.601562 15.601562 1.601562 L 14.398438 1.601562 L 14.398438 1.199219 C 14.398438 0.519531 13.878906 0 13.199219 0 L 10.800781 0 C 10.121094 0 9.601562 0.558594 9.601562 1.199219 L 9.601562 1.601562 L 8.398438 1.601562 C 7.960938 1.601562 7.601562 1.960938 7.601562 2.398438 L 7.601562 2.800781 L 5.601562 2.800781 C 4.480469 2.800781 3.601562 3.679688 3.601562 4.800781 L 3.601562 22 C 3.601562 23.121094 4.480469 24 5.601562 24 L 18.398438 24 C 19.519531 24 20.398438 23.121094 20.398438 22 L 20.398438 4.800781 C 20.398438 3.679688 19.519531 2.800781 18.398438 2.800781 Z M 8.398438 2.398438 L 10 2.398438 C 10.238281 2.398438 10.398438 2.238281 10.398438 2 L 10.398438 1.199219 C 10.398438 0.960938 10.558594 0.800781 10.800781 0.800781 L 13.199219 0.800781 C 13.441406 0.800781 13.601562 1 13.601562 1.199219 L 13.601562 2 C 13.601562 2.238281 13.761719 2.398438 14 2.398438 L 15.601562 2.398438 L 15.601562 5.199219 L 8.398438 5.199219 Z M 19.601562 22 C 19.601562 22.679688 19.078125 23.199219 18.398438 23.199219 L 5.601562 23.199219 C 4.921875 23.199219 4.398438 22.679688 4.398438 22 L 4.398438 4.800781 C 4.398438 4.121094 4.921875 3.601562 5.601562 3.601562 L 7.601562 3.601562 L 7.601562 5.199219 C 7.601562 5.640625 7.960938 6 8.398438 6 L 15.601562 6 C 16.039062 6 16.398438 5.640625 16.398438 5.199219 L 16.398438 3.601562 L 18.398438 3.601562 C 19.078125 3.601562 19.601562 4.121094 19.601562 4.800781 Z M 19.601562 22"/>
    <path d="M7.601562 8C7.160156 8 6.800781 8.359375 6.800781 8.800781 6.800781 9.238281 7.160156 9.601562 7.601562 9.601562 8.039062 9.601562 8.398438 9.238281 8.398438 8.800781 8.398438 8.359375 8.039062 8 7.601562 8zM16.398438 8.398438L9.601562 8.398438C9.359375 8.398438 9.199219 8.558594 9.199219 8.800781 9.199219 9.039062 9.359375 9.199219 9.601562 9.199219L16.398438 9.199219C16.640625 9.199219 16.800781 9.039062 16.800781 8.800781 16.800781 8.558594 16.640625 8.398438 16.398438 8.398438zM7.601562 11.601562C7.160156 11.601562 6.800781 11.960938 6.800781 12.398438 6.800781 12.839844 7.160156 13.199219 7.601562 13.199219 8.039062 13.199219 8.398438 12.839844 8.398438 12.398438 8.398438 11.960938 8.039062 11.601562 7.601562 11.601562zM16.398438 12L9.601562 12C9.359375 12 9.199219 12.160156 9.199219 12.398438 9.199219 12.640625 9.359375 12.800781 9.601562 12.800781L16.398438 12.800781C16.640625 12.800781 16.800781 12.640625 16.800781 12.398438 16.800781 12.160156 16.640625 12 16.398438 12zM7.601562 15.199219C7.160156 15.199219 6.800781 15.558594 6.800781 16 6.800781 16.441406 7.160156 16.800781 7.601562 16.800781 8.039062 16.800781 8.398438 16.441406 8.398438 16 8.398438 15.558594 8.039062 15.199219 7.601562 15.199219zM16.398438 15.601562L9.601562 15.601562C9.359375 15.601562 9.199219 15.761719 9.199219 16 9.199219 16.238281 9.359375 16.398438 9.601562 16.398438L16.398438 16.398438C16.640625 16.398438 16.800781 16.238281 16.800781 16 16.800781 15.761719 16.640625 15.601562 16.398438 15.601562zM7.601562 18.800781C7.160156 18.800781 6.800781 19.160156 6.800781 19.601562 6.800781 20.039062 7.160156 20.398438 7.601562 20.398438 8.039062 20.398438 8.398438 20.039062 8.398438 19.601562 8.398438 19.160156 8.039062 18.800781 7.601562 18.800781zM16.398438 19.199219L9.601562 19.199219C9.359375 19.199219 9.199219 19.359375 9.199219 19.601562 9.199219 19.839844 9.359375 20 9.601562 20L16.398438 20C16.640625 20 16.800781 19.839844 16.800781 19.601562 16.800781 19.359375 16.640625 19.199219 16.398438 19.199219zM16.398438 19.199219"/>
</svg>

<svg xmlns="http://www.w3.org/2000/svg" width="32" height="32" viewBox="0 0 24 24">
    <path d="M18.398 2.8h-2v-.402a.8.8 0 0 0-.796-.796h-1.204v-.403C14.398.52 13.878 0 13.2 0h-2.398c-.68 0-1.2.559-1.2 1.2v.402H8.399a.8.8 0 0 0-.796.796v.403h-2c-1.122 0-2 .879-2 2V22c0 1.121.878 2 2 2h12.796c1.122 0 2-.879 2-2V4.8c0-1.12-.878-2-2-2zm-10-.402H10c.238 0 .398-.16.398-.398v-.8c0-.24.16-.4.403-.4h2.398a.4.4 0 0 1 .403.4V2c0 .238.16.398.398.398h1.602V5.2H8.398zM19.602 22c0 .68-.524 1.2-1.204 1.2H5.602A1.18 1.18 0 0 1 4.398 22V4.8c0-.679.524-1.198 1.204-1.198h2v1.597c0 .442.359.801.796.801h7.204c.437 0 .796-.36.796-.8V3.601h2c.68 0 1.204.52 1.204 1.199zm0 0"/>
    <path d="M7.602 8c-.442 0-.801.36-.801.8 0 .438.36.802.8.802a.801.801 0 0 0 0-1.602zm0 0M16.398 8.398H9.602c-.243 0-.403.16-.403.403 0 .238.16.398.403.398h6.796c.243 0 .403-.16.403-.398 0-.242-.16-.403-.403-.403zm0 0M7.602 11.602c-.442 0-.801.359-.801.796 0 .442.36.801.8.801.438 0 .797-.36.797-.8a.8.8 0 0 0-.796-.797zm0 0M16.398 12H9.602c-.243 0-.403.16-.403.398 0 .243.16.403.403.403h6.796c.243 0 .403-.16.403-.403 0-.238-.16-.398-.403-.398zm0 0M7.602 15.2a.802.802 0 0 0 0 1.6.801.801 0 0 0 0-1.6zm0 0M16.398 15.602H9.602c-.243 0-.403.16-.403.398 0 .238.16.398.403.398h6.796c.243 0 .403-.16.403-.398 0-.238-.16-.398-.403-.398zm0 0M7.602 18.8c-.442 0-.801.36-.801.802 0 .437.36.796.8.796a.8.8 0 0 0 .797-.796c0-.442-.359-.801-.796-.801zm0 0M16.398 19.2H9.602c-.243 0-.403.16-.403.402 0 .238.16.398.403.398h6.796c.243 0 .403-.16.403-.398 0-.243-.16-.403-.403-.403zm0 0"/>
</svg>
